X: 14674
T: Gan Ainm
R: jig
M: 6/8
K: Bminor
|:FAA dAA|BAA ABG|FAA dfe|dBB BAG|
FAA dAA|BAA Age|~f3 fef|1 dBB BAG:|2 dBB B2g||
|:faa ~b2a|afd def|~a3 ~b3|afd efd|
fga ~b3|afd def|gfe dfe|1 dBB B2g:|2 dBB BAG||

